X:1
T:The Well-Tempered Clavier Book I - V
T:BWV 850   (A = 415 Hz)
T:Johann Sebastian Bach
%%score { ( 1 4 ) | ( 2 3 ) }
L:1/8
Q:1/4=132
M:4/4
K:D
V:1 treble nm="Harp"
V:4 treble 
V:2 bass 
V:3 bass 
V:1
"^Allegro""^Praeludium" z/ d/e/f/ A/f/e/d/ a/d/e/f/ A/f/e/d/ | %1
 g/e/f/g/ B/d/c/B/ c/e/f/g/ A/g/f/e/ | f/d/e/f/ A/c/B/A/ B/d/e/f/ B/a/^g/f/ | %3
 ^g/e/f/g/ B/d/c/B/ A/c/d/e/ F/e/d/c/ | d/B/c/d/ F/A/^G/F/ G/B/c/d/ E/d/c/B/ | %5
 c/A/B/c/ E/G/F/E/ F/A/B/c/ F/e/^d/c/ | ^d/B/c/d/ F/A/G/F/ E/G/A/B/ C/=d/c/B/ | %7
 ^A/E/F/G/ C/G/F/E/ D/B/c/d/ F/=A/^G/F/ | ^E/^G/A/B/ =F/d/c/B/ ^g/=f/^f/g/ c/b/a/g/ | %9
 a/f/^g/a/ c/e/^d/c/ d/f/=g/a/ B/a/g/f/ | g/e/f/g/ B/d/=c/B/ c/^d/e/f/ A/c/B/A/ | %11
 G/e/f/g/ B/d/c/B/ c/e/f/g/ A/g/f/e/ | f/d/e/f/ A/=c/B/A/ B/G/A/B/ C/B/A/G/ | %13
 F/D/E/F/ A,/=C/B,/A,/ B,/D/E/F/ B,/A/^G/F/ | ^G/E/F/G/ B,/D/=C/B,/ A,/C/D/E/ A,/=G/F/E/ | %15
 ^D/A,/B,/=C/ F,/C/B,/A,/ G,/E/F/G/ B,/=D/^C/B,/ | ^A,/C/D/E/ _B,/G/F/E/ c/^A/B/c/ F/e/d/c/ | %17
 d/B/c/d/ F/A/^G/F/ G/B/=c/d/ E/d/c/B/ | =c/A/B/c/ E/G/F/E/ F/A/B/c/ D/c/B/A/ | %19
 B/G/A/B/ D/B/A/G/ d/G/A/B/ D/B/A/G/ | =c/A/B/c/ E/G/F/E/ F/A/B/c/ D/c/B/A/ | %21
 B/G/A/B/ D/F/E/D/ E/G/A/B/ E/d/c/B/ | c/A/B/c/ E/G/F/E/ D/F/G/A/ B,/A/G/F/ | %23
 G/E/F/G/ B,/D/C/B,/ C/E/F/G/ A,/G/F/E/ | F/D/E/F/ A,/F/E/D/ A/F/G/A/ D/=c/B/A/ | %25
 B/G/A/B/ D/B/A/G/ d/B/=c/d/ _A/=f/e/d/ | c/A/B/c/ E/G/F/E/ A/d/e/f/ B/a/g/f/ | %27
 g/c/d/e/ A/g/f/e/ f/B/c/d/ ^G/f/e/d/ | c/G/A/_B/ E/G/=F/E/ F/d/e/=f/ c/e/d/c/ | %29
 d/_b/a/g/ =f/e/d/c/ d/f/e/d/ =b/^g/a/b/ | =f/d/e/f/ B/^G/A/B/ E/F/G/A/ B/c/d/e/ | %31
 =f3 e- ed- d[Q:1/4=83][Q:1/4=80]c[Q:1/4=69] | %32
[Q:1/4=45] !arpeggio!d2-[Q:1/4=50] d/4c/4[Q:1/4=55]B/4A/4[Q:1/4=61]^G/4^F/4[Q:1/4=67]E/4F/4 G/4A/4B/4c/4[Q:1/4=76]d/4e/4=f/4e/4[Q:1/4=80] d/4c/4[Q:1/4=75]B/4A/4[Q:1/4=69]G/4F/4[Q:1/4=64]E/4D/4[Q:1/4=73][Q:1/4=18] | %33
[Q:1/4=53] !arpeggio![EG_Bceg_b][Q:1/4=50] z !arpeggio![=F^G=Bd=f^g=b] z[Q:1/4=52] d2[Q:1/4=45] c2[Q:1/4=42] | %34
[Q:1/4=60] !fermata![FAd]8 | z8 |[Q:1/4=65]"^Fuga" z8 | z2 A,/4B,/4C/4D/4C/4B,/4C/4A,/4 F>F E>D | %38
 C2 F>F B,-B,/4B,/4C/4D/4 E/D/E/C/ | z2 D/4E/4F/4G/4F/4E/4F/4D/4 B>B A>G | %40
 F>^G A/4B/4c/4d/4c/4B/4c/4A/4 f>f e>d | c-c/4e/4f/4g/4 a>a a-a/4d/4e/4f/4 g>g | %42
 g2 f>e d>e d/4c/4B/4c/4d/4c/4c/ | c2 B/4c/4d/4e/4d/4c/4d/4B/4 g>g f>e | %44
 d2 b/a/b/^g/ g/f/g/e/ e/d/e/c/ | dc a/=g/a/f/ f/e/f/d/ d/=c/d/B/ | %46
 B2 G/4A/4B/4=c/4B/4A/4B/4G/4 e>e d>c | B>c d4 c2 | d2 d/4e/4f/4g/4f/4e/4f/4d/4 b>b a>g | %49
 f-f/4d/4e/4f/4 g>g g>a f>f | f3/2e/4^d/4 e2- e>d e>f | B3/2=c/4A/4 B>c G2 F2 | %52
 E/4F/4G/4A/4G/4F/4G/4E/4 g z z4 | A/4B/4c/4d/4c/4B/4c/4A/4 f z z4 | %54
 G/4A/4B/4=c/4B/4A/4B/4G/4 e z z4 | F/4G/4A/4B/4A/4G/4A/4F/4 d>d d>e d/4c/4d/4c/4d/4c/4d/4e/4 | %56
 f2 b/a/b/g/ g/f/g/e/ e/d/e/c/ | c2 d>d d>e d/4c/4B/4c/4d/4c/4d/ | %58
 d2 B/4c/4d/4e/4d/4c/4d/4B/4 e2 A/4B/4c/4d/4c/4B/4c/4A/4 | %59
 d2 G/4A/4B/4=c/4B/4A/4B/4G/4 ^c/4d/4e/4f/4e/4d/4e/4c/4 f/4g/4a/4b/4a/4g/4a/4f/4 | %60
 b>c d>e f>F G>A | B>B c>d F2 E2 | D8 |] %63
V:2
 D, z D z F, z D z | E, z D z A, z C z | D, z D z D, z D z | D, z ^G, z C, z A, z | %4
 B,, z A, z E, z ^G, z | A,, z A, z A,, z A, z | A,, z _E, z G,, z =E, z | F,, z F, z F,, z F, z | %8
 F,, z F, z F,, z F, z | F,, z F, z B,, z ^D, z | E,, z E, z E,, z ^D, z | E,, z E, z A,, z C, z | %12
 D,, z D, z D,, z D, z | D,, z D, z D,, z D, z | D,, z _A, z =C, z F, z | B,, z ^D, z E, z G, z | %16
 B,, z E, z G, z ^A, z | B,, z B, z E, z ^G, z | A,, z A, z D, z F, z | G,, z G, z B,, z G, z | %20
 A,, z G, z D, z F, z | G,, z G, z G,, z G, z | G,, z C, z F,, z D, z | E,, z D, z A,, z C, z | %24
 D,, z D, z F,, z A, z | G,, z G, z B,, z D z | A,, z G, z F, z D, z | E, z C, z D, z B,, z | %28
 z/ E,/F,/G,/ C,/E,/D,/C,/ D,/=F,/G,/A,/ E,/G,/F,/E,/ | =F,/D,/E,/F,/ A,,/=C,/_B,,/A,,/ ^G,,4- | %30
 G,,8 | z A,G,C, =F,D,E,G, | !arpeggio![D,=F,^G,B,]2 z2 z4 | %33
[I:staff -1] !arpeggio!C[I:staff +1] z[I:staff -1] !arpeggio!D[I:staff +1] z [A,,A,]4 | %34
 !fermata![D,F,A,]8 | z8 | z2 D,/4E,/4F,/4G,/4F,/4E,/4F,/4D,/4 B,>B, A,>G, | F,>G, F,>E, D,2 E,2 | %38
 A,,-A,,/4E,/4F,/4G,/4 A,4 G,2- | G,3/2F,/4E,/4 F,>D, G,>E, A,>A,, | z2 C2 B,4 | %41
 A,2[I:staff -1] F/4G/4A/4B/4A/4G/4A/4F/4 B2 E/4F/4G/4A/4G/4F/4G/4E/4 | A2 A>G F>G E2 | %43
 D2[I:staff +1] D2 C4 | B,2 z2[I:staff -1] B>^G G>E | E2[I:staff +1] z2[I:staff -1] A>F F>D | %46
 D2[I:staff +1] z2 z4 | G,>A, B,>A, G,>E, A,>A,, | %48
 B,,/4C,/4D,/4E,/4D,/4C,/4D,/4B,,/4 B,>A, G,>E, A,>A,, | %49
 z2 G,/4A,/4B,/4=C/4B,/4A,/4B,/4G,/4 E>E D>C | B,2[I:staff -1] G2 F4- | %51
 F2 E>[I:staff +1]F, G,>A, B,>A, | G,2 z2 B,>G, G,>E, | E,2 z2 A,>F, F,>D, | D,2 z2 G,>E, E,>C, | %55
 C,2 z2 z2 A,/4B,/4C/4D/4C/4B,/4C/4A,/4 | D2 z2[I:staff -1] B>G G>E | E2 F>F F>G E2 | %58
 F2[I:staff +1] z2[I:staff -1] E2[I:staff +1] z2 |[I:staff -1] D2[I:staff +1] z2 z4 | %60
 z3/2[I:staff -1] E/ F>G A>A, B,>=C | D>G G>A A,2 G,2 | F,8 |] %63
V:3
 x8 | x8 | x8 | x8 | x8 | x8 | x8 | x8 | x8 | x8 | x8 | x8 | x8 | x8 | x8 | x8 | x8 | x8 | x8 | %19
 x8 | x8 | x8 | x8 | x8 | x8 | x8 | A,,8- | A,,8- | A,,8 | x8 | x8 | A,,8 | !arpeggio!A,,2 z2 z4 | %33
 x4 E,2 =G,2 | x4 z4 | x8 | x8 | x8 | x8 | x8 | D,>E, F,>E, D,>B,, E,2 | A,,2 z2 z4 | %42
 z2 D,,/4E,,/4F,,/4G,,/4F,,/4E,,/4F,,/4D,,/4 B,,>B,, A,,>G,, | %43
 F,,-F,,/4D,/4E,/4F,/4 G,>F, E,>C, F,2 | B,,/4C,/4D,/4E,/4D,/4C,/4D,/4B,,/4 ^G, z z4 | %45
 A,,/4B,,/4C,/4D,/4C,/4B,,/4C,/4A,,/4 F, z z4 | %46
 G,,/4A,,/4B,,/4=C,/4B,,/4A,,/4B,,/4G,,/4 E,>D, C,2 D,2 | x8 | x8 | D,2 E,2 =C>A, D>D, | %50
 G,2 E,,/4F,,/4G,,/4A,,/4G,,/4F,,/4G,,/4E,,/4 =C,>C, B,,>A,, | G,,>F,, G,,>A,, B,,4 | %52
 E,2 B,/A,/B,/G,/ G,/F,/G,/E,/ E,/D,/E,/C,/ | C,2 A,/G,/A,/F,/ F,/E,/F,/D,/ D,/C,/D,/B,,/ | %54
 B,,2 G,/F,/G,/E,/ E,/D,/E,/C,/ C,/B,,/C,/A,,/ | A,,2 z2 E,/4F,/4G,/4A,/4G,/4F,/4G,/4E,/4 A,2 | %56
 D,/4E,/4F,/4G,/4F,/4E,/4F,/4D,/4 G, z z4 | %57
 [G,,G,]2 F,/4G,/4A,/4G,/4F,/4E,/4D,/4C,/4 B,,/4C,/4D,/4C,/4B,,/4A,,/4B,,/4G,,/4 A,,>A,, | %58
 A,,D,,/4D,/4E,/4F,/4 G,2 C,/4D,/4E,/4F,/4E,/4D,/4E,/4C,/4 F,2 | %59
 B,,/4C,/4D,/4E,/4D,/4C,/4D,/4B,,/4 E,/4F,/4G,/4A,/4G,/4F,/4G,/4E,/4 A,/4B,/4C/4D/4C/4B,/4C/4A,/4 D/4E/4F/4G/4F/4E/4F/4D/4 | %60
 G>G, F,>E, D,>=C, B,,>A,, | G,,>F,, E,,>D,, A,,4 | D,,8 |] %63
V:4
 x8 | x8 | x8 | x8 | x8 | x8 | x8 | x8 | x8 | x8 | x8 | x8 | x8 | x8 | x8 | x8 | x8 | x8 | x8 | %19
 x8 | x8 | x8 | x8 | x8 | x8 | x8 | x8 | x8 | x8 | x8 | x8 | %31
 =f/c/d/A/ _B/G/e/G/ A/=F/G/E/ G/E/c/E/ | !arpeggio![D=FGB]2 x6 | x4 [EA]4 | x4 z4 | x8 | x8 | x8 | %38
 x8 | A,2 D2- D2 C2 | D2 A2- A2 ^G2 | A2 c2 d2 d2 | c-c/4e/4d/4c/4 d>c B2 A2 | A2 B2- B2 ^A2 | %44
 B2 z2 d>B B>A | A2 z2 =c>A A>G | G2 z2 z4 | z2 D/4E/4F/4G/4F/4E/4F/4D/4 B>B A>G | %48
 F>A d2- d2 =c2- | c2 B2 A4 | G2 B2 A4- | A2 G>E E2 ^D2 | E2 z2[I:staff +1] E>C C>A, | %53
 A,2[I:staff -1] z2[I:staff +1] D>B, B,>G, | G,2[I:staff -1] z2[I:staff +1] C>A, A,>F, | %55
 F,2 B,/4C/4D/4E/4D/4C/4D/4B,/4[I:staff -1] G4 | F2 z2 d>B B>A | A2 A>A B>B A2 | A2 z2 B2 z2 | %59
 A2 z2 z4 | z3/2 A/ A>c d>D D>F | G>D E>F D2 C2 | A,8 |] %63

